svgs/sharp-regular/truck-container-empty.svg

<svg xmlns="http://www.w3.org/2000/svg" viewBox="0 0 640 512"><!--! Font Awesome Pro 6.6.0 by @fontawesome - https://fontawesome.com License - https://fontawesome.com/license (Commercial License) Copyright 2024 Fonticons, Inc. --><path d="M432 144l24 0 88 0 11.4 0 7.2 8.8 72 88 5.4 6.6 0 8.6 0 32 0 112-32 0c0 44.2-35.8 80-80 80s-80-35.8-80-80l-16 0-144 0c0 44.2-35.8 80-80 80c-26.2 0-49.4-12.6-64-32c-14.6 19.4-37.8 32-64 32c-44.2 0-80-35.8-80-80s35.8-80 80-80c26.2 0 49.4 12.6 64 32c14.6-19.4 37.8-32 64-32s49.4 12.6 64 32l160 0 0-96 0-88 0-24zm100.6 48L480 192l0 64 105 0-52.4-64zM528 432a32 32 0 1 0 0-64 32 32 0 1 0 0 64zM240 400a32 32 0 1 0 -64 0 32 32 0 1 0 64 0zM80 432a32 32 0 1 0 0-64 32 32 0 1 0 0 64z"/></svg>

<svg xmlns="http://www.w3.org/2000/svg" viewBox="0 0 640 512"><!--! Font Awesome Pro 6.4.2 by @fontawesome - https://fontawesome.com License - https://fontawesome.com/license (Commercial License) Copyright 2023 Fonticons, Inc. --><path d="M432 144h24 88 11.4l7.2 8.8 72 88 5.4 6.6V256v32V400H608c0 44.2-35.8 80-80 80s-80-35.8-80-80H432 288c0 44.2-35.8 80-80 80c-26.2 0-49.4-12.6-64-32c-14.6 19.4-37.8 32-64 32c-44.2 0-80-35.8-80-80s35.8-80 80-80c26.2 0 49.4 12.6 64 32c14.6-19.4 37.8-32 64-32s49.4 12.6 64 32H432V256 168 144zm100.6 48H480v64H585l-52.4-64zM528 432a32 32 0 1 0 0-64 32 32 0 1 0 0 64zM240 400a32 32 0 1 0 -64 0 32 32 0 1 0 64 0zM80 432a32 32 0 1 0 0-64 32 32 0 1 0 0 64z"/></svg>
